static/img/logos/aws.svg

<svg fill="none" height="32" viewBox="0 0 32 32" width="32" xmlns="http://www.w3.org/2000/svg" xmlns:xlink="http://www.w3.org/1999/xlink"><clipPath id="a"><path d="m0 0h32v32h-32z"/></clipPath><g clip-path="url(#a)"><path d="m26.9072 16.0019c-.5605 0-1.1085-.0621-1.6441-.1863-.5356-.1243-.9466-.261-1.2331-.4225-.1744-.0994-.2865-.1988-.3239-.2982-.0498-.0994-.0622-.1988-.0622-.2982v-.5342c0-.2237.0747-.3355.2366-.3355.0623 0 .1246.0124.1993.0373.0623.0248.1619.0621.274.1118.3612.1615.7474.2858 1.1709.3727.4234.087.8469.1243 1.2704.1243.6726 0 1.1833-.1118 1.557-.3479.3612-.2361.548-.5716.548-1.0064 0-.2982-.0996-.5467-.2865-.7455-.1868-.1988-.548-.3852-1.0711-.5591l-1.5445-.4846c-.7847-.2485-1.3452-.6088-1.7064-1.0809-.3488-.47218-.5356-.98159-.5356-1.54071 0-.44729.0996-.84488.2864-1.18035.1869-.33547.4484-.63366.7598-.86973s.6851-.42244 1.1086-.54669.8719-.18637 1.3452-.18637c.2366 0 .4733.01242.7224.0497.2367.03727.4733.07455.6851.12425.2117.0497.4235.09939.6103.16152.1868.06212.3363.12425.4484.18637.1495.08697.2491.17395.3114.26092s.0872.1988.0872.34789v.49699c0 .22365-.0748.33547-.2367.33547-.0872 0-.2242-.03727-.411-.12425-.6103-.27334-1.2954-.41001-2.0427-.41001-.6104 0-1.0837.09939-1.42.29819s-.4982.50942-.4982.94428c0 .2982.0996.54669.3114.75791.2117.1988.5979.39759 1.1708.58392l1.5071.4846c.7723.2485 1.3203.584 1.6442 1.0188.3238.4349.4982.9319.4982 1.491 0 .4597-.0872.8697-.274 1.2301-.1869.3603-.4484.6833-.7723.9442-.3238.261-.7224.4598-1.1833.5964-.4608.1243-.959.1988-1.5071.1988zm-13.6637-.2857c-.1869 0-.3239-.0373-.4111-.0994-.0872-.0622-.1619-.2113-.2242-.4225l-2.4911-8.21274c-.0623-.21122-.0872-.3479-.0872-.42245 0-.17394.0872-.26092.2616-.26092h1.0463c.1993 0 .3363.03728.4235.0994.0747.06213.1494.21122.2117.42244l1.7936 7.01997 1.6317-7.01997c.0498-.21122.1121-.34789.1993-.42244.0872-.06212.2242-.0994.4234-.0994h.8595c.1993 0 .3363.03728.4235.0994.0872.06213.1494.21122.1993.42244l1.6815 7.11937 1.8434-7.11937c.0623-.21122.137-.34789.2117-.42244.0748-.06212.2242-.0994.4235-.0994h.984c.1744 0 .2616.08698.2616.26092 0 .0497-.0125.0994-.0125.16153-.0125.06212-.0374.14909-.0748.26092l-2.5658 8.21274c-.0623.2112-.137.3479-.2242.4225-.0872.0621-.2242.0994-.411.0994h-.9093c-.1993 0-.3363-.0373-.4235-.1119-.0872-.0745-.1495-.2112-.1993-.4224l-1.6566-6.83362-1.6441 6.83362c-.0498.2112-.1121.3479-.1993.4224-.0872.0746-.2242.1119-.4235.1119zm-8.55701-1.1555c.34875 0 .70996-.0622 1.09609-.1988.38612-.1243.72242-.3604 1.0089-.6834.17438-.1988.29893-.4224.36121-.6834.06228-.2485.09965-.5591.09965-.9194v-.4473c-.31139-.0745-.63524-.1367-.98399-.1739-.33631-.0373-.67261-.0622-.99645-.0622-.70997 0-1.2331.1367-1.58186.4225s-.52314.6958-.52314 1.23c0 .497.12456.8698.38613 1.1183.28648.2733.64769.3976 1.13346.3976zm4.32209-1.6153c0 .3976.03736.7082.12455.9443.07473.2361.19929.4846.34876.7579.04982.087.07473.1615.07473.2361 0 .1118-.06228.2112-.19929.3106l-.68506.4722c-.09964.0621-.18683.0869-.27402.0869-.1121 0-.21174-.0497-.31139-.1491-.14947-.1491-.27402-.3106-.38612-.497-.09965-.1739-.21175-.3851-.32385-.6212-.83452.9816-1.88079 1.4661-3.12635 1.4661-.8968 0-1.60677-.2485-2.11745-.7579-.52313-.5094-.7847-1.1928-.7847-2.0376 0-.907.32384-1.6277.97154-2.1868.64769-.5467 1.51958-.8325 2.60321-.8325.36121 0 .73488.0249 1.121.087.38613.0497.79716.1367 1.22065.2361v-.78277c0-.80761-.16192-1.36673-.49822-1.70219-.3363-.32305-.90926-.49699-1.73133-.49699-.37367 0-.75979.0497-1.14591.13667s-.77225.21122-1.14592.36032c-.17437.07454-.29893.12424-.37366.13667-.07474.01242-.12456.02485-.16193.02485-.14946 0-.2242-.11183-.2242-.33547v-.52184c0-.17395.02492-.29819.07474-.37274s.14946-.1491.29893-.22365c.37367-.18637.82207-.34789 1.3452-.48456.52314-.13668 1.07119-.1988 1.6566-.1988 1.27047 0 2.19218.28577 2.79005.86973.58541.57154.88435 1.44127.88435 2.6092v3.46647z" fill="#1a263e"/><g fill="#f90"><path d="m28.925 21.1582c-3.5 2.5843-8.5819 3.951-12.9538 3.951-6.12816 0-11.64598-2.2613-15.831065-6.026-.323845-.2982-.037366-.6958.361212-.4721 4.508923 2.6216 10.076553 4.1871 15.843553 4.1871 3.8861 0 8.1584-.8076 12.0819-2.4601.5854-.2485 1.0711.3976.4982.8201z"/><path d="m30.3825 19.4931c-.4484-.5715-2.9645-.2733-4.0979-.1367-.3363.0373-.3986-.2609-.0872-.4721 2.0053-1.404 5.2936-.994 5.6797-.5343.3862.4722-.0996 3.7647-1.9804 5.3302-.2865.2361-.5605.1119-.4359-.2112.4234-1.0437 1.3701-3.3919.9217-3.9759z"/></g></g></svg>

<svg width="32" height="32" viewBox="0 0 32 32" fill="none" xmlns="http://www.w3.org/2000/svg">
<g clip-path="url(#clip0_4394_2)">
<path d="M26.9072 16.0019C26.3467 16.0019 25.7987 15.9398 25.2631 15.8156C24.7275 15.6913 24.3165 15.5546 24.03 15.3931C23.8556 15.2937 23.7435 15.1943 23.7061 15.0949C23.6563 14.9955 23.6439 14.8961 23.6439 14.7967V14.2625C23.6439 14.0388 23.7186 13.927 23.8805 13.927C23.9428 13.927 24.0051 13.9394 24.0798 13.9643C24.1421 13.9891 24.2417 14.0264 24.3538 14.0761C24.715 14.2376 25.1012 14.3619 25.5247 14.4488C25.9481 14.5358 26.3716 14.5731 26.7951 14.5731C27.4677 14.5731 27.9784 14.4613 28.3521 14.2252C28.7133 13.9891 28.9001 13.6536 28.9001 13.2188C28.9001 12.9206 28.8005 12.6721 28.6136 12.4733C28.4268 12.2745 28.0656 12.0881 27.5425 11.9142L25.998 11.4296C25.2133 11.1811 24.6528 10.8208 24.2916 10.3487C23.9428 9.87652 23.756 9.36711 23.756 8.80799C23.756 8.3607 23.8556 7.96311 24.0424 7.62764C24.2293 7.29217 24.4908 6.99398 24.8022 6.75791C25.1136 6.52184 25.4873 6.33547 25.9108 6.21122C26.3343 6.08697 26.7827 6.02485 27.256 6.02485C27.4926 6.02485 27.7293 6.03727 27.9784 6.07455C28.2151 6.11182 28.4517 6.1491 28.6635 6.1988C28.8752 6.2485 29.087 6.29819 29.2738 6.36032C29.4606 6.42244 29.6101 6.48457 29.7222 6.54669C29.8717 6.63366 29.9713 6.72064 30.0336 6.80761C30.0959 6.89458 30.1208 7.00641 30.1208 7.1555V7.65249C30.1208 7.87614 30.046 7.98796 29.8841 7.98796C29.7969 7.98796 29.6599 7.95069 29.4731 7.86371C28.8628 7.59037 28.1777 7.4537 27.4304 7.4537C26.82 7.4537 26.3467 7.55309 26.0104 7.75189C25.6741 7.95069 25.5122 8.26131 25.5122 8.69617C25.5122 8.99437 25.6118 9.24286 25.8236 9.45408C26.0353 9.65288 26.4215 9.85167 26.9944 10.038L28.5015 10.5226C29.2738 10.7711 29.8218 11.1066 30.1457 11.5414C30.4695 11.9763 30.6439 12.4733 30.6439 13.0324C30.6439 13.4921 30.5567 13.9021 30.3699 14.2625C30.183 14.6228 29.9215 14.9458 29.5976 15.2067C29.2738 15.4677 28.8752 15.6665 28.4143 15.8031C27.9535 15.9274 27.4553 16.0019 26.9072 16.0019ZM13.2435 15.7162C13.0566 15.7162 12.9196 15.6789 12.8324 15.6168C12.7452 15.5546 12.6705 15.4055 12.6082 15.1943L10.1171 6.98156C10.0548 6.77034 10.0299 6.63366 10.0299 6.55911C10.0299 6.38517 10.1171 6.29819 10.2915 6.29819H11.3378C11.5371 6.29819 11.6741 6.33547 11.7613 6.39759C11.836 6.45972 11.9107 6.60881 11.973 6.82003L13.7666 13.84L15.3983 6.82003C15.4481 6.60881 15.5104 6.47214 15.5976 6.39759C15.6848 6.33547 15.8218 6.29819 16.021 6.29819H16.8805C17.0798 6.29819 17.2168 6.33547 17.304 6.39759C17.3912 6.45972 17.4534 6.60881 17.5033 6.82003L19.1848 13.9394L21.0282 6.82003C21.0905 6.60881 21.1652 6.47214 21.2399 6.39759C21.3147 6.33547 21.4641 6.29819 21.6634 6.29819H22.6474C22.8218 6.29819 22.909 6.38517 22.909 6.55911C22.909 6.60881 22.8965 6.65851 22.8965 6.72064C22.884 6.78276 22.8591 6.86973 22.8217 6.98156L20.2559 15.1943C20.1936 15.4055 20.1189 15.5422 20.0317 15.6168C19.9445 15.6789 19.8075 15.7162 19.6207 15.7162H18.7114C18.5121 15.7162 18.3751 15.6789 18.2879 15.6043C18.2007 15.5298 18.1384 15.3931 18.0886 15.1819L16.432 8.34828L14.7879 15.1819C14.7381 15.3931 14.6758 15.5298 14.5886 15.6043C14.5014 15.6789 14.3644 15.7162 14.1651 15.7162H13.2435ZM4.68649 14.5607C5.03524 14.5607 5.39645 14.4985 5.78258 14.3619C6.1687 14.2376 6.505 14.0015 6.79148 13.6785C6.96586 13.4797 7.09041 13.2561 7.15269 12.9951C7.21497 12.7466 7.25234 12.436 7.25234 12.0757V11.6284C6.94095 11.5539 6.6171 11.4917 6.26835 11.4545C5.93204 11.4172 5.59574 11.3923 5.2719 11.3923C4.56193 11.3923 4.0388 11.529 3.69004 11.8148C3.34128 12.1006 3.1669 12.5106 3.1669 13.0448C3.1669 13.5418 3.29146 13.9146 3.55303 14.1631C3.83951 14.4364 4.20072 14.5607 4.68649 14.5607ZM9.00858 12.9454C9.00858 13.343 9.04594 13.6536 9.13313 13.8897C9.20786 14.1258 9.33242 14.3743 9.48189 14.6476C9.53171 14.7346 9.55662 14.8091 9.55662 14.8837C9.55662 14.9955 9.49434 15.0949 9.35733 15.1943L8.67227 15.6665C8.57263 15.7286 8.48544 15.7534 8.39825 15.7534C8.28615 15.7534 8.18651 15.7037 8.08686 15.6043C7.93739 15.4552 7.81284 15.2937 7.70074 15.1073C7.60109 14.9334 7.48899 14.7222 7.37689 14.4861C6.54237 15.4677 5.4961 15.9522 4.25054 15.9522C3.35374 15.9522 2.64377 15.7037 2.13309 15.1943C1.60996 14.6849 1.34839 14.0015 1.34839 13.1567C1.34839 12.2497 1.67223 11.529 2.31993 10.9699C2.96762 10.4232 3.83951 10.1374 4.92314 10.1374C5.28435 10.1374 5.65802 10.1623 6.04414 10.2244C6.43027 10.2741 6.8413 10.3611 7.26479 10.4605V9.67773C7.26479 8.87012 7.10287 8.311 6.76657 7.97554C6.43027 7.65249 5.85731 7.47855 5.03524 7.47855C4.66157 7.47855 4.27545 7.52825 3.88933 7.61522C3.50321 7.70219 3.11708 7.82644 2.74341 7.97554C2.56904 8.05008 2.44448 8.09978 2.36975 8.11221C2.29501 8.12463 2.24519 8.13706 2.20782 8.13706C2.05836 8.13706 1.98362 8.02523 1.98362 7.80159V7.27975C1.98362 7.1058 2.00854 6.98156 2.05836 6.90701C2.10818 6.83246 2.20782 6.75791 2.35729 6.68336C2.73096 6.49699 3.17936 6.33547 3.70249 6.1988C4.22563 6.06212 4.77368 6 5.35909 6C6.62956 6 7.55127 6.28577 8.14914 6.86973C8.73455 7.44127 9.03349 8.311 9.03349 9.47893V12.9454H9.00858Z" fill="#1A263E"/>
<path d="M28.925 21.1582C25.425 23.7425 20.3431 25.1092 15.9712 25.1092C9.84304 25.1092 4.32522 22.8479 0.140135 19.0832C-0.18371 18.785 0.102769 18.3874 0.501347 18.6111C5.01027 21.2327 10.5779 22.7982 16.3449 22.7982C20.231 22.7982 24.5033 21.9906 28.4268 20.3381C29.0122 20.0896 29.4979 20.7357 28.925 21.1582Z" fill="#FF9900"/>
<path d="M30.3825 19.4931C29.9341 18.9216 27.418 19.2198 26.2846 19.3564C25.9483 19.3937 25.886 19.0955 26.1974 18.8843C28.2027 17.4803 31.491 17.8903 31.8771 18.35C32.2633 18.8222 31.7775 22.1147 29.8967 23.6802C29.6102 23.9163 29.3362 23.7921 29.4608 23.469C29.8842 22.4253 30.8309 20.0771 30.3825 19.4931Z" fill="#FF9900"/>
</g>
<defs>
<clipPath id="clip0_4394_2">
<rect width="32" height="32" fill="white"/>
</clipPath>
</defs>
</svg>
